imagens/produto-animal.svg

<svg xmlns="http://www.w3.org/2000/svg" xmlns:xlink="http://www.w3.org/1999/xlink" width="500" zoomAndPan="magnify" viewBox="0 0 375 374.999991" height="500" preserveAspectRatio="xMidYMid meet" version="1.0"><defs><clipPath id="66d193cec5"><path d="M 76 14.0625 L 176 14.0625 L 176 144 L 76 144 Z M 76 14.0625 " clip-rule="nonzero"/></clipPath><clipPath id="e721a2d1ed"><path d="M 51 146 L 316.773438 146 L 316.773438 360.878906 L 51 360.878906 Z M 51 146 " clip-rule="nonzero"/></clipPath></defs><path fill="#f9943b" d="M 65.238281 220.898438 C 66.066406 220.816406 66.894531 220.734375 67.71875 220.691406 C 76.742188 219.488281 84.691406 215.101562 90.773438 208.355469 C 95.703125 202.976562 98.929688 196.480469 100.792969 188.863281 C 102.363281 182.902344 102.65625 176.238281 101.664062 169.65625 C 100.171875 156.496094 95 144.078125 86.179688 133.152344 C 83.40625 129.675781 80.21875 126.199219 76.621094 123.179688 C 68.589844 116.347656 60.351562 112.457031 51.457031 110.304688 C 45.578125 109.148438 40.117188 108.734375 34.402344 109.644531 C 25.382812 111.21875 17.804688 115.191406 11.71875 121.894531 C 6.796875 127.316406 3.238281 134.644531 1.828125 142.671875 C 0.921875 146.894531 0.464844 151.074219 0.792969 155.214844 L 0.875 156.457031 C 1 157.699219 1.082031 158.9375 1.210938 160.179688 L 1.289062 161.378906 C 2.492188 170.859375 5.71875 179.714844 10.5625 188.035156 C 14.410156 194.367188 19.085938 200.203125 24.46875 205.167969 C 32.085938 212 40.363281 216.71875 49.261719 218.871094 C 54.847656 220.898438 60.269531 221.269531 65.238281 220.898438 " fill-opacity="1" fill-rule="nonzero"/><g clip-path="url(#66d193cec5)"><path fill="#f9943b" d="M 78.980469 94.332031 C 81.464844 104.265625 85.601562 112.953125 90.980469 120.40625 C 96.363281 127.855469 102.15625 133.234375 109.191406 137.375 C 114.988281 141.101562 121.195312 143.171875 127.820312 143.582031 L 131.128906 143.582031 C 137.753906 143.582031 143.960938 141.925781 149.339844 138.203125 C 154.722656 135.308594 159.6875 130.753906 163.828125 125.371094 C 169.621094 117.921875 173.347656 108.816406 175.003906 98.054688 C 175.414062 93.5 175.828125 88.949219 175.828125 83.984375 C 175.828125 80.257812 175.414062 76.535156 175.003906 72.804688 C 174.175781 66.1875 172.519531 59.976562 170.035156 53.769531 C 165.898438 43.421875 160.101562 34.730469 152.652344 28.109375 C 147.269531 23.140625 141.476562 19.414062 135.269531 17.347656 C 127.40625 14.449219 119.539062 14.035156 111.675781 16.101562 C 104.226562 17.757812 97.605469 21.898438 91.8125 28.109375 C 86.84375 33.488281 83.53125 39.28125 80.632812 46.316406 C 77.738281 54.59375 76.082031 63.289062 76.082031 73.222656 C 76.082031 74.875 76.496094 76.535156 76.496094 79.015625 C 76.910156 83.984375 77.738281 89.363281 78.980469 94.332031 " fill-opacity="1" fill-rule="nonzero"/></g><path fill="#f9943b" d="M 196.527344 113.78125 C 199.421875 122.0625 203.558594 128.683594 209.355469 134.0625 C 216.804688 141.101562 225.5 145.242188 235.433594 145.652344 L 237.917969 145.652344 C 242.882812 145.652344 247.433594 144.410156 252.398438 144.410156 C 259.4375 141.511719 265.644531 137.375 271.855469 131.578125 C 278.0625 125.371094 283.027344 118.335938 286.753906 110.472656 C 292.136719 99.296875 295.03125 87.707031 295.445312 75.289062 C 295.445312 68.257812 295.03125 61.21875 293.375 55.007812 C 291.308594 46.316406 288.410156 39.28125 283.859375 33.074219 C 276.40625 22.726562 266.472656 16.933594 254.882812 15.277344 C 254.46875 15.277344 254.46875 15.277344 254.054688 15.277344 L 244.535156 15.277344 C 239.15625 16.101562 233.363281 17.757812 228.394531 20.65625 C 221.769531 24.382812 215.566406 29.761719 210.183594 36.382812 C 204.390625 43.421875 200.25 51.699219 196.941406 60.804688 C 194.042969 69.082031 192.800781 77.773438 192.386719 86.46875 C 192.386719 90.191406 192.386719 93.917969 192.800781 97.640625 C 193.625 103.433594 194.871094 108.816406 196.527344 113.78125 " fill-opacity="1" fill-rule="nonzero"/><g clip-path="url(#e721a2d1ed)"><path fill="#f9943b" d="M 300.785156 253.679688 C 295.40625 245.816406 288.78125 238.367188 280.917969 231.742188 C 275.539062 226.777344 270.15625 221.394531 265.605469 215.601562 C 260.636719 209.394531 256.082031 202.769531 252.359375 196.976562 L 249.464844 192.421875 C 246.566406 187.867188 243.667969 183.734375 240.769531 179.179688 C 236.21875 172.554688 232.078125 167.175781 227.523438 163.039062 C 219.660156 155.585938 210.558594 150.621094 200.210938 148.136719 C 193.585938 146.480469 186.550781 146.066406 179.929688 146.066406 C 173.71875 146.066406 167.511719 147.308594 161.71875 149.792969 C 154.679688 152.691406 148.46875 157.242188 141.851562 163.449219 C 138.125 167.175781 133.988281 171.726562 129.847656 177.109375 C 125.707031 182.488281 121.984375 187.867188 118.257812 193.25 L 116.1875 196.5625 C 111.222656 203.183594 106.253906 210.632812 100.460938 217.257812 C 95.496094 223.050781 90.941406 227.605469 86.386719 231.742188 C 80.59375 236.707031 74.800781 242.507812 70.246094 248.710938 C 63.621094 257.40625 58.65625 266.921875 55.347656 276.445312 C 53.277344 283.066406 52.035156 289.6875 51.621094 296.3125 C 51.207031 302.105469 51.621094 308.3125 52.863281 313.695312 C 56.171875 329.007812 64.035156 341.425781 76.867188 350.53125 C 84.316406 355.910156 92.597656 359.222656 102.113281 360.050781 C 103.359375 360.464844 104.1875 360.464844 105.425781 360.464844 L 111.636719 360.464844 C 115.359375 360.464844 119.085938 360.050781 121.984375 359.636719 C 130.261719 357.980469 138.539062 355.910156 145.988281 353.839844 L 146.402344 353.839844 C 153.4375 352.1875 160.476562 350.117188 167.511719 348.875 C 170.410156 348.460938 174.132812 347.632812 177.859375 347.632812 C 182.824219 347.632812 187.378906 347.632812 191.515625 348.046875 C 197.3125 348.875 203.933594 350.117188 210.96875 351.769531 C 214.28125 352.601562 218.007812 353.839844 221.320312 354.667969 C 225.871094 355.910156 230.835938 357.152344 235.804688 358.394531 C 240.769531 359.636719 246.152344 360.878906 251.945312 360.878906 L 261.878906 360.878906 C 262.707031 360.878906 263.121094 360.464844 263.949219 359.222656 C 266.429688 359.222656 269.328125 358.808594 271.8125 357.980469 C 278.433594 356.324219 285.058594 353.425781 291.265625 348.875 C 299.542969 343.082031 306.167969 335.628906 310.304688 326.9375 C 314.855469 317.417969 316.925781 307.484375 316.511719 296.3125 C 316.101562 290.101562 314.855469 283.066406 312.371094 276.445312 C 309.890625 268.578125 306.167969 261.128906 300.785156 253.679688 " fill-opacity="1" fill-rule="nonzero"/></g><path fill="#f9943b" d="M 373.175781 142.671875 C 371.769531 134.644531 368.207031 127.316406 363.242188 121.894531 C 357.160156 115.191406 349.625 111.21875 340.601562 109.644531 C 334.847656 108.734375 329.425781 109.148438 323.507812 110.304688 C 314.609375 112.457031 306.414062 116.347656 298.386719 123.179688 C 294.785156 126.199219 291.597656 129.675781 288.824219 133.152344 C 280.007812 144.078125 274.832031 156.496094 273.304688 169.65625 C 272.351562 176.238281 272.640625 182.902344 274.214844 188.863281 C 276.074219 196.480469 279.261719 202.976562 284.226562 208.355469 C 290.3125 215.101562 298.261719 219.488281 307.28125 220.691406 C 308.113281 220.734375 308.941406 220.816406 309.765625 220.898438 C 314.734375 221.269531 320.15625 220.898438 325.699219 218.871094 C 334.601562 216.71875 342.878906 212 350.535156 205.167969 C 355.914062 200.203125 360.554688 194.367188 364.402344 188.035156 C 369.242188 179.714844 372.472656 170.859375 373.671875 161.378906 L 373.796875 160.179688 C 373.878906 158.9375 374.003906 157.699219 374.085938 156.457031 L 374.210938 155.214844 C 374.539062 151.074219 374.042969 146.894531 373.175781 142.671875 " fill-opacity="1" fill-rule="nonzero"/></svg>

<svg xmlns="http://www.w3.org/2000/svg" width="500" height="500" version="1.0" viewBox="0 0 375 375"><defs><clipPath id="a"><path d="M76 14.063h100V144H76Zm0 0"/></clipPath><clipPath id="b"><path d="M51 146h265.773v214.879H51Zm0 0"/></clipPath></defs><path fill="#f9943b" d="M65.238 220.898a53.506 53.506 0 0 1 2.48-.207c9.024-1.203 16.973-5.59 23.055-12.336 4.93-5.378 8.157-11.875 10.02-19.492 1.57-5.96 1.863-12.625.871-19.207-1.492-13.16-6.664-25.578-15.484-36.504-2.774-3.476-5.961-6.953-9.559-9.972-8.031-6.832-16.27-10.723-25.164-12.875-5.879-1.157-11.34-1.57-17.055-.66-9.02 1.574-16.597 5.546-22.683 12.25-4.922 5.421-8.48 12.75-9.89 20.777-.907 4.223-1.364 8.402-1.036 12.543l.082 1.242c.125 1.242.207 2.48.336 3.723l.078 1.199c1.203 9.48 4.43 18.336 9.274 26.656 3.847 6.332 8.523 12.168 13.906 17.133 7.617 6.832 15.894 11.55 24.793 13.703 5.586 2.027 11.008 2.399 15.976 2.027"/><g clip-path="url(#a)"><path fill="#f9943b" d="M78.98 94.332c2.485 9.934 6.622 18.621 12 26.074 5.383 7.45 11.176 12.828 18.211 16.969 5.797 3.727 12.004 5.797 18.63 6.207h3.308c6.625 0 12.832-1.656 18.21-5.379 5.384-2.894 10.349-7.45 14.49-12.832 5.792-7.45 9.519-16.555 11.175-27.316.41-4.555.824-9.106.824-14.07 0-3.727-.414-7.45-.824-11.18-.828-6.618-2.484-12.828-4.969-19.035-4.137-10.348-9.933-19.04-17.383-25.66-5.382-4.97-11.175-8.696-17.382-10.762-7.864-2.899-15.73-3.313-23.594-1.246-7.45 1.656-14.07 5.796-19.864 12.007-4.968 5.38-8.28 11.172-11.18 18.207-2.894 8.278-4.55 16.973-4.55 26.907 0 1.652.414 3.312.414 5.793.414 4.968 1.242 10.347 2.484 15.316"/></g><path fill="#f9943b" d="M196.527 113.781c2.895 8.281 7.032 14.903 12.828 20.281 7.45 7.04 16.145 11.18 26.079 11.59h2.484c4.965 0 9.516-1.242 14.48-1.242 7.04-2.898 13.247-7.035 19.457-12.832 6.207-6.207 11.172-13.242 14.899-21.105 5.383-11.176 8.277-22.766 8.691-35.184 0-7.031-.414-14.07-2.07-20.281-2.066-8.692-4.965-15.727-9.516-21.934-7.453-10.347-17.386-16.14-28.976-17.797H244.535c-5.379.825-11.172 2.48-16.14 5.38-6.625 3.726-12.829 9.105-18.211 15.726-5.793 7.039-9.934 15.316-13.243 24.422-2.898 8.277-4.14 16.968-4.554 25.664 0 3.722 0 7.449.414 11.172.824 5.793 2.07 11.175 3.726 16.14"/><g clip-path="url(#b)"><path fill="#f9943b" d="M300.785 253.68a109.71 109.71 0 0 0-19.867-21.938c-5.379-4.965-10.762-10.347-15.313-16.14-4.968-6.207-9.523-12.832-13.246-18.625l-2.894-4.555c-2.899-4.555-5.797-8.688-8.695-13.242-4.551-6.625-8.692-12.004-13.247-16.14-7.863-7.454-16.964-12.419-27.312-14.903-6.625-1.657-13.66-2.07-20.281-2.07a46.217 46.217 0 0 0-18.211 3.726c-7.04 2.898-13.25 7.45-19.867 13.656a140.51 140.51 0 0 0-12.004 13.66c-4.141 5.38-7.864 10.758-11.59 16.141l-2.07 3.313c-4.965 6.62-9.934 14.07-15.727 20.695a157.773 157.773 0 0 1-14.074 14.484c-5.793 4.965-11.586 10.766-16.14 16.969a100.293 100.293 0 0 0-14.9 27.734c-2.07 6.621-3.312 13.243-3.726 19.868-.414 5.792 0 12 1.242 17.382 3.309 15.313 11.172 27.73 24.004 36.836 7.45 5.38 15.73 8.692 25.246 9.52 1.246.414 2.075.414 3.313.414h6.21c3.723 0 7.45-.414 10.348-.828 8.278-1.657 16.555-3.727 24.004-5.797h.414c7.036-1.652 14.075-3.723 21.11-4.965 2.898-.414 6.62-1.242 10.347-1.242 4.965 0 9.52 0 13.657.414 5.797.828 12.418 2.07 19.453 3.723 3.312.832 7.039 2.07 10.351 2.898 4.551 1.242 9.516 2.484 14.485 3.727 4.965 1.242 10.347 2.484 16.14 2.484h9.934c.828 0 1.242-.414 2.07-1.656 2.48 0 5.38-.414 7.863-1.243 6.622-1.656 13.247-4.554 19.454-9.105 8.277-5.793 14.902-13.246 19.039-21.938 4.55-9.519 6.62-19.453 6.207-30.625-.41-6.21-1.657-13.246-4.14-19.867-2.481-7.867-6.204-15.316-11.587-22.765"/></g><path fill="#f9943b" d="M373.176 142.672c-1.406-8.027-4.969-15.356-9.934-20.777-6.082-6.704-13.617-10.676-22.64-12.25-5.754-.91-11.176-.497-17.094.66-8.899 2.152-17.094 6.043-25.121 12.875-3.602 3.02-6.79 6.496-9.563 9.972-8.816 10.926-13.992 23.344-15.52 36.504-.952 6.582-.663 13.246.91 19.207 1.86 7.617 5.048 14.114 10.013 19.492 6.086 6.747 14.035 11.133 23.054 12.336.832.043 1.66.125 2.485.207 4.968.372 10.39 0 15.933-2.027 8.903-2.152 17.18-6.871 24.836-13.703 5.38-4.965 10.02-10.8 13.867-17.133 4.84-8.32 8.07-17.176 9.27-26.656l.125-1.2c.082-1.242.207-2.48.289-3.722l.125-1.242c.328-4.14-.168-8.32-1.035-12.543"/></svg>
